www/assets/icons/phone_iphone.svg

<svg width="24" height="24" viewBox="0 0 24 24" xmlns="http://www.w3.org/2000/svg" fill='currentColor'><path d="M16 1H8C6.62 1 5.5 2.12 5.5 3.5V20.5C5.5 21.88 6.62 23 8 23H16C17.38 23 18.5 21.88 18.5 20.5V3.5C18.5 2.12 17.38 1 16 1ZM12 22C11.17 22 10.5 21.33 10.5 20.5C10.5 19.67 11.17 19 12 19C12.83 19 13.5 19.67 13.5 20.5C13.5 21.33 12.83 22 12 22ZM16.5 18H7.5V4H16.5V18Z"/></svg>

<svg xmlns="http://www.w3.org/2000/svg" width="24" height="24" viewBox="0 0 24 24" fill='currentColor'><path d="M16 1H8a2.5 2.5 0 0 0-2.5 2.5v17A2.5 2.5 0 0 0 8 23h8a2.5 2.5 0 0 0 2.5-2.5v-17A2.5 2.5 0 0 0 16 1m-4 21c-.83 0-1.5-.67-1.5-1.5S11.17 19 12 19s1.5.67 1.5 1.5S12.83 22 12 22m4.5-4h-9V4h9z"/></svg>
